svg/24/logo-dropbox.svg

<svg width="24" height="24" viewBox="0 0 24 24" fill="currentColor" xmlns="http://www.w3.org/2000/svg"><path d="M12.0129 6.38243L7.00647 9.76486L12.0129 13.1473L7.00647 16.5297L2 13.129L7.00647 9.74657L2 6.38243L7.00647 3L12.0129 6.38243ZM6.98058 17.6176L11.9871 14.2351L16.9935 17.6176L11.9871 21L6.98058 17.6176ZM12.0129 13.129L17.0194 9.74657L12.0129 6.38243L16.9935 3L22 6.38243L16.9935 9.76486L22 13.1473L16.9935 16.5297L12.0129 13.129Z"/></svg>

<svg xmlns="http://www.w3.org/2000/svg" width="24" height="24" fill="currentColor" viewBox="0 0 24 24">
  <path d="M12.013 6.382 7.006 9.765l5.007 3.382-5.007 3.383L2 13.129l5.006-3.382L2 6.382 7.006 3l5.007 3.382ZM6.98 17.618l5.006-3.383 5.007 3.383L11.987 21l-5.006-3.382Zm5.032-4.489 5.006-3.382-5.006-3.365L16.993 3 22 6.382l-5.006 3.383L22 13.147l-5.006 3.383-4.981-3.401Z"/>
</svg>
